src/main/resources/icons/DatabaseIcons/icons/greenBugOverlap.svg

<svg width="16" height="16" viewBox="0 0 16 16" fill="none" xmlns="http://www.w3.org/2000/svg">
<path fill-rule="evenodd" clip-rule="evenodd" d="M15.0811 13.1397V13.4538C15.0811 13.6718 15.0435 13.8798 14.9901 14.0821H16V15.0244H14.5039C14.0368 15.5935 13.3317 15.9667 12.5356 15.9667C11.7395 15.9667 11.0345 15.5935 10.5674 15.0244H9V14.0821H10.0812C10.0277 13.8798 9.99018 13.6718 9.99018 13.4538V13.1397H9V12.1974H9.99018V11.5692C9.99018 11.4618 10.0093 11.3594 10.0226 11.2551H9V10.3128H10.3459C10.589 9.90261 10.9441 9.56903 11.3724 9.34853L10.4783 8.46653L11.1535 7.8L12.4364 9.06646C12.4701 9.06521 12.4663 9.06018 12.5 9.06018C12.5121 9.06018 12.5579 9.06521 12.57 9.06584L13.8465 7.8L14.5217 8.46653L13.6531 9.32403C14.1017 9.54327 14.4734 9.88753 14.7254 10.3128H16V11.2551H15.0486C15.062 11.3594 15.0811 11.4618 15.0811 11.5692V12.1974H16V13.1397H15.0811ZM11.45 11.3V12.175H13.55V11.3H11.45ZM11.45 13.05V13.925H13.55V13.05H11.45Z" fill="#59A869"/>
</svg>

<svg width="16" height="16" viewBox="0 0 16 16" fill="none" xmlns="http://www.w3.org/2000/svg"><rect id="frame" width="16" height="16" fill="none"/><path fill-rule="evenodd" clip-rule="evenodd" d="M15.081 13.14v.314c0 .218-.037.426-.09.628H16v.942h-1.496a2.544 2.544 0 0 1-1.968.943 2.544 2.544 0 0 1-1.969-.943H9v-.942h1.081a2.444 2.444 0 0 1-.09-.628v-.314H9v-.943h.99v-.628c0-.107.02-.21.033-.314H9v-.942h1.346c.243-.41.598-.744 1.026-.964l-.894-.882.675-.667 1.283 1.266c.034 0 .03-.006.064-.006.012 0 .058.005.07.006L13.847 7.8l.675.667-.869.857c.449.22.82.564 1.072.989H16v.942h-.951c.013.104.032.207.032.314v.628H16v.943h-.919zM11.45 11.3v.875h2.1V11.3h-2.1zm0 1.75v.875h2.1v-.875h-2.1z" fill="#59A869"/></svg>
